assets/Bright button/Flat/bright_button_flat.svg

<svg width="32" height="32" viewBox="0 0 32 32" fill="none" xmlns="http://www.w3.org/2000/svg">
<path d="M15.92 7.73C15.09 7.73 14.42 7.06 14.42 6.23V3.5C14.42 2.68 15.09 2 15.92 2C16.74 2 17.42 2.67 17.42 3.5V6.23C17.42 7.06 16.74 7.73 15.92 7.73Z" fill="#FFB02E"/>
<path d="M15.92 23.28C11.86 23.28 8.54999 19.98 8.54999 15.91C8.54999 11.84 11.85 8.54001 15.92 8.54001C19.99 8.54001 23.29 11.84 23.29 15.91C23.29 19.98 19.98 23.28 15.92 23.28ZM15.92 11.55C13.51 11.55 11.55 13.51 11.55 15.92C11.55 18.33 13.51 20.29 15.92 20.29C18.33 20.29 20.29 18.33 20.29 15.92C20.29 13.51 18.32 11.55 15.92 11.55Z" fill="#FFB02E"/>
<path d="M8.00999 10.13C8.58999 10.71 9.54999 10.71 10.13 10.13C10.71 9.54999 10.71 8.58999 10.13 8.00999L8.19999 6.07999C7.61999 5.49999 6.65999 5.49999 6.07999 6.07999C5.49999 6.65999 5.49999 7.61999 6.07999 8.19999L8.00999 10.13Z" fill="#FFB02E"/>
<path d="M7.73 15.92C7.73 16.75 7.06 17.42 6.23 17.42H3.5C2.68 17.42 2 16.75 2 15.92C2 15.1 2.67 14.42 3.5 14.42H6.23C7.06 14.42 7.73 15.09 7.73 15.92Z" fill="#FFB02E"/>
<path d="M10.13 23.83C10.71 23.25 10.71 22.29 10.13 21.71C9.54999 21.12 8.58999 21.12 8.00999 21.71L6.07999 23.64C5.49999 24.22 5.49999 25.18 6.07999 25.76C6.65999 26.34 7.61999 26.34 8.19999 25.76L10.13 23.83Z" fill="#FFB02E"/>
<path d="M15.92 24.1C16.75 24.1 17.42 24.77 17.42 25.6V28.33C17.42 29.15 16.75 29.83 15.92 29.83C15.1 29.83 14.42 29.16 14.42 28.33V25.6C14.42 24.78 15.09 24.1 15.92 24.1Z" fill="#FFB02E"/>
<path d="M23.83 21.71C23.25 21.13 22.29 21.13 21.71 21.71C21.12 22.29 21.12 23.24 21.71 23.83L23.64 25.76C24.22 26.34 25.18 26.34 25.76 25.76C26.34 25.18 26.34 24.22 25.76 23.64L23.83 21.71Z" fill="#FFB02E"/>
<path d="M24.1 15.92C24.1 15.09 24.77 14.42 25.6 14.42H28.33C29.15 14.42 29.83 15.09 29.83 15.92C29.83 16.74 29.16 17.42 28.33 17.42H25.6C24.78 17.42 24.1 16.74 24.1 15.92Z" fill="#FFB02E"/>
<path d="M21.71 8.00999C21.13 8.58999 21.13 9.54999 21.71 10.13C22.29 10.71 23.24 10.71 23.83 10.13L25.76 8.19999C26.34 7.61999 26.34 6.65999 25.76 6.07999C25.18 5.49999 24.22 5.49999 23.64 6.07999L21.71 8.00999Z" fill="#FFB02E"/>
</svg>

<svg xmlns="http://www.w3.org/2000/svg" width="32" height="32" fill="none"><path fill="#FFB02E" d="M15.92 7.73c-.83 0-1.5-.67-1.5-1.5V3.5c0-.82.67-1.5 1.5-1.5.82 0 1.5.67 1.5 1.5v2.73c0 .83-.68 1.5-1.5 1.5ZM15.92 23.28c-4.06 0-7.37-3.3-7.37-7.37a7.37 7.37 0 0 1 14.74 0c0 4.07-3.31 7.37-7.37 7.37Zm0-11.73c-2.41 0-4.37 1.96-4.37 4.37s1.96 4.37 4.37 4.37 4.37-1.96 4.37-4.37a4.38 4.38 0 0 0-4.37-4.37ZM8.01 10.13c.58.58 1.54.58 2.12 0 .58-.58.58-1.54 0-2.12L8.2 6.08c-.58-.58-1.54-.58-2.12 0-.58.58-.58 1.54 0 2.12l1.93 1.93ZM7.73 15.92c0 .83-.67 1.5-1.5 1.5H3.5c-.82 0-1.5-.67-1.5-1.5 0-.82.67-1.5 1.5-1.5h2.73c.83 0 1.5.67 1.5 1.5ZM10.13 23.83c.58-.58.58-1.54 0-2.12a1.49 1.49 0 0 0-2.12 0l-1.93 1.93c-.58.58-.58 1.54 0 2.12.58.58 1.54.58 2.12 0l1.93-1.93ZM15.92 24.1c.83 0 1.5.67 1.5 1.5v2.73c0 .82-.67 1.5-1.5 1.5-.82 0-1.5-.67-1.5-1.5V25.6c0-.82.67-1.5 1.5-1.5ZM23.83 21.71c-.58-.58-1.54-.58-2.12 0a1.49 1.49 0 0 0 0 2.12l1.93 1.93c.58.58 1.54.58 2.12 0 .58-.58.58-1.54 0-2.12l-1.93-1.93ZM24.1 15.92c0-.83.67-1.5 1.5-1.5h2.73c.82 0 1.5.67 1.5 1.5 0 .82-.67 1.5-1.5 1.5H25.6c-.82 0-1.5-.68-1.5-1.5ZM21.71 8.01c-.58.58-.58 1.54 0 2.12.58.58 1.53.58 2.12 0l1.93-1.93c.58-.58.58-1.54 0-2.12-.58-.58-1.54-.58-2.12 0l-1.93 1.93Z"/></svg>
